!! 00000] TT[WS
!!!OTL: Fan shen
!!!ARE: Asia, China, Shanxi Dingxiang
!! Ethnic Group: Han
!! WI, 299 (1)
!!!SCT: J0361
!!!YEM: Copyright 1995, estate of Helmut Schaffrath.
**kern
*ICvox
*Ivox
*M2/4
*k[f#]
*G:
{8b
16b
16a
16b
16a
16b
16g
=1
4.e
8b
=2
16a
16b
16a
16g
8f#
16e
16B
=3
2d}
=4
{8e
8a
8g
16f#
16e
=5
16d
16e
8g
8.B
16b
=6
16a
16b
16a
16g
8f#
16e
16B
=7
2d}
==
!!!AGN: Xiaodiao. Xinminge, Xuanchuan
!! Neue Text. Politische Liede
!!!ONB: ESAC (Essen Associative Code) Database: CHINA
!!!AMT: simple duple
!!!AIN: vox
!!!EED: Helmut Schaffrath
!!!EEV: 1.0
*-
